source/img/svg/logo-mobile.svg

<svg width="191" height="38" viewBox="0 0 191 38" fill="none" xmlns="http://www.w3.org/2000/svg">
<g clip-path="url(#clip0)">
<path d="M6.07 20.72V18.46C12.7536 17.5423 19.4937 17.0979 26.24 17.13C26.24 17.73 26.24 18.34 26.18 18.95C28.0976 18.099 30.1128 17.4877 32.18 17.13C30.8625 13.722 28.4618 10.8412 25.3471 8.93087C22.2324 7.02052 18.5764 6.1864 14.9414 6.55683C11.3064 6.92727 7.89379 8.48172 5.22852 10.9811C2.56325 13.4804 0.792969 16.7863 0.190001 20.39L6.07 20.72Z" fill="#FDC305"/>
<path d="M27.24 24.23C26.08 25.51 25.85 25.43 25.85 27.68C25.85 28.59 25.85 32.58 25.85 36.86C28.1425 35.346 30.0245 33.2879 31.328 30.8694C32.6315 28.4509 33.3158 25.7474 33.32 23C33.3068 21.9591 33.1997 20.9216 33 19.9C30.9282 21.1295 28.9967 22.5814 27.24 24.23Z" fill="#FDC305"/>
<path d="M6.36 25.72C6.36 25.72 2.57 24.28 1.17 23.89C0.787067 23.7693 0.396097 23.6757 0 23.61C0.108395 26.496 0.965588 29.3041 2.48739 31.7586C4.00919 34.2131 6.14326 36.2296 8.68 37.61L6.36 25.72Z" fill="#FDC305"/>
<path d="M26.29 17.12C26.3307 11.5986 25.862 6.08528 24.89 0.65C24.89 0.65 24.75 -0.64 24 0.41C23.4109 1.65814 23.0067 2.98539 22.8 4.35C18.5418 4.07577 14.2675 4.18957 10.03 4.69C9.24 2 7.85 0.75 7.18 1C6.51 1.25 6.46 4.31 6.46 4.31L6.13 18.41C12.8113 17.506 19.548 17.0749 26.29 17.12Z" fill="#F06351"/>
<path d="M12.41 14C12.41 13.91 13.41 14.68 13.82 14.92C14.23 15.16 14.43 15.34 14.43 15.51C14.43 15.68 14.16 15.85 13.8 15.85C13.44 15.85 12.89 15.73 12.8 15.58H13.74H14.03C13.4207 15.1294 12.8757 14.5978 12.41 14Z" fill="black"/>
<path d="M19.89 14.11L18.8 15.44C18.8 15.5 18.63 15.79 18.98 15.74C19.3942 15.6783 19.8023 15.5812 20.2 15.45C20.31 15.45 20.27 15.26 20.09 15.28C19.91 15.3 19.4 15.33 19.09 15.39L19.93 14.13C19.93 14.13 20 14 19.89 14.11Z" fill="black"/>
<path d="M16.75 20.2C17.2135 19.9958 17.5967 19.6443 17.84 19.2C18.12 18.55 17.84 18.29 17.4 18.2C16.7979 18.0902 16.1765 18.2116 15.66 18.54C15.27 18.9 15.32 19.26 15.61 19.54C15.9613 19.8062 16.3442 20.0279 16.75 20.2Z" fill="black"/>
<path d="M16.35 21.45C16.2379 21.6785 16.0816 21.8825 15.89 22.05C15.6052 22.2791 15.2551 22.4122 14.89 22.43C14.3638 22.472 13.8406 22.3189 13.42 22C13.2222 21.8808 13.0436 21.7324 12.89 21.56C12.7895 21.4491 12.6669 21.3605 12.53 21.3C12.53 21.3 13.28 25.4 15.1 26.05C16.92 26.7 17.24 25.3 17.3 24.92C17.3601 23.7851 17.0742 22.6588 16.48 21.69C16.46 21.38 16.45 21.58 16.35 21.45Z" fill="#F06351"/>
<path d="M14.71 22.59C14.2453 22.5247 13.7989 22.3651 13.3982 22.1209C12.9975 21.8767 12.651 21.5531 12.38 21.17C12.3667 21.157 12.3561 21.1414 12.3489 21.1242C12.3417 21.1071 12.338 21.0886 12.338 21.07C12.338 21.0514 12.3417 21.0329 12.3489 21.0158C12.3561 20.9986 12.3667 20.983 12.38 20.97C12.393 20.9567 12.4086 20.9461 12.4258 20.9389C12.4429 20.9317 12.4614 20.928 12.48 20.928C12.4986 20.928 12.5171 20.9317 12.5342 20.9389C12.5514 20.9461 12.567 20.9567 12.58 20.97C13.0848 21.6642 13.843 22.1313 14.69 22.27C15.0217 22.245 15.3426 22.1413 15.6261 21.9674C15.9096 21.7934 16.1475 21.5544 16.32 21.27L16.46 21.08L16.56 21.29C16.56 21.29 16.93 22.05 17.56 22.09C18.19 22.13 18.61 21.68 19.17 20.81C19.183 20.7967 19.1986 20.7861 19.2158 20.7789C19.2329 20.7717 19.2514 20.768 19.27 20.768C19.2886 20.768 19.3071 20.7717 19.3242 20.7789C19.3414 20.7861 19.357 20.7967 19.37 20.81C19.4023 20.8306 19.4255 20.8629 19.4348 20.9C19.4441 20.9372 19.4388 20.9766 19.42 21.01C18.78 22.01 18.15 22.45 17.54 22.41C17.308 22.3763 17.0867 22.2904 16.8927 22.1587C16.6987 22.0271 16.5371 21.8531 16.42 21.65C16.2233 21.9245 15.9676 22.1514 15.6717 22.3141C15.3758 22.4767 15.0471 22.571 14.71 22.59Z" fill="black"/>
<path d="M26.24 18.92C24.4445 20.5437 22.7512 22.277 21.17 24.11C19.5986 25.9361 17.8238 27.5768 15.88 29C15.66 28.47 14.26 27.49 14.26 27.49C14.26 27.49 11.13 25.35 9.08 23.67C7.97414 22.7373 6.9287 21.7353 5.95 20.67L3.95 20.56C6.84018 24.7655 11.0702 27.8676 15.95 29.36C16.81 29.22 19.22 27.5 21.02 26.1C23.1389 24.2819 25.124 22.3134 26.96 20.21C27.4625 19.621 27.8493 18.9425 28.1 18.21C27 18.6 26.24 18.92 26.24 18.92Z" fill="#F06351"/>
</g>
<g clip-path="url(#clip1)">
<path d="M91.2645 29.5385C90.3696 28.2762 89.9253 26.7627 90 25.2308V18.8462C89.8916 17.2977 90.3081 15.7575 91.1855 14.4615C92.0548 13.4615 93.3983 13 95.374 13C97.3498 13 98.6143 13.4615 99.4045 14.3077C100.263 15.3794 100.685 16.7214 100.59 18.0769V19.6154H96.7175V17.8462C96.7488 17.3229 96.6681 16.799 96.4804 16.3077C96.3802 16.1094 96.2212 15.9448 96.024 15.8351C95.8269 15.7255 95.6005 15.6757 95.374 15.6923C94.8208 15.6923 94.4257 15.8462 94.2676 16.2308C94.0888 16.7773 94.0086 17.3499 94.0305 17.9231V26.1538C93.9888 26.71 94.0978 27.267 94.3466 27.7692C94.5047 28.1538 94.8999 28.3077 95.4531 28.3077C96.0063 28.3077 96.3224 28.1538 96.4804 27.7692C96.6601 27.2494 96.7405 26.7019 96.7175 26.1538V24.3077H100.59V25.8462C100.67 27.2238 100.251 28.5852 99.4045 29.6923C98.6143 30.6154 97.2707 31.0769 95.374 31.0769C93.4773 31 92.0548 30.5385 91.2645 29.5385Z" fill="#111111"/>
<path d="M105.253 13.2308H109.757L113.077 30.7692H109.441L108.809 27.0769H106.201L105.569 30.7692H101.854L105.253 13.2308ZM108.493 24.7692L107.545 17.9231L106.596 24.7692H108.493Z" fill="#111111"/>
<path d="M115.843 16.1538H113.156V13.2308H122.56V16.0769H119.873V30.7692H115.843V16.1538Z" fill="#111111"/>
<path d="M129.752 13.2308H136.707V15.0769H132.202V20.8462H135.837V22.6154H132.202V29.0769H136.707V30.8462H129.673V13.2308H129.752Z" fill="#111111"/>
<path d="M138.761 13.2308H140.5L145.637 24.8462V13.2308H147.692V30.7692H146.111L140.895 18.7692V30.7692H138.761V13.2308Z" fill="#111111"/>
<path d="M150.063 13.2308H157.017V15.0769H152.513V20.8462H156.148V22.6154H152.513V29.0769H157.017V30.8462H150.063V13.2308Z" fill="#111111"/>
<path d="M159.072 13.2308H162.707C164.137 13.1346 165.559 13.5144 166.738 14.3077C167.607 15 168.002 16.2308 168.002 17.8462C168.002 20.0769 167.291 21.4615 165.79 21.9231L168.318 30.6923H165.869L163.498 22.4615H161.522V30.6923H158.993V13.2308H159.072ZM162.549 20.7692C163.364 20.8346 164.176 20.6165 164.841 20.1538C165.315 19.7692 165.552 19 165.552 17.8462C165.574 17.273 165.494 16.7004 165.315 16.1538C165.137 15.7617 164.832 15.4373 164.446 15.2308C163.902 14.9893 163.304 14.8836 162.707 14.9231H161.601V20.6923H162.549V20.7692Z" fill="#111111"/>
<path d="M171.164 29.4615C170.342 28.1166 169.956 26.5617 170.057 25V19.1538C170.038 18.0391 170.17 16.9268 170.452 15.8462C170.717 15.0386 171.244 14.3367 171.954 13.8462C172.836 13.3377 173.854 13.0967 174.878 13.1538C176.538 13.1538 177.723 13.5385 178.434 14.3846C179.252 15.5019 179.644 16.8624 179.541 18.2308V18.8462H177.17V18.3077C177.173 17.6635 177.12 17.0201 177.012 16.3846C176.945 15.983 176.718 15.6235 176.379 15.3846C175.935 15.1008 175.408 14.9658 174.878 15C174.311 14.9647 173.75 15.1284 173.297 15.4615C173.111 15.614 172.959 15.8018 172.851 16.0134C172.742 16.2251 172.679 16.4561 172.665 16.6923C172.561 17.38 172.508 18.0741 172.507 18.7692V25.3077C172.449 26.3038 172.61 27.3006 172.981 28.2308C173.297 28.8462 173.93 29.0769 174.878 29.0769C175.252 29.1223 175.632 29.0589 175.97 28.8947C176.307 28.7304 176.587 28.4727 176.775 28.1538C177.192 27.1811 177.381 26.1299 177.328 25.0769V23.8462H175.036V22.0769H179.62V30.7692H178.039L177.802 28.7692C177.595 29.4395 177.163 30.0231 176.576 30.4273C175.989 30.8315 175.28 31.0331 174.562 31C173.909 31.0374 173.256 30.9164 172.663 30.6479C172.07 30.3794 171.555 29.9717 171.164 29.4615Z" fill="#111111"/>
<path d="M184.678 24.6154L180.805 13.3077H183.176L185.942 21.7692L188.629 13.3077H191L187.128 24.6154V30.7692H184.757V24.6154H184.678Z" fill="#111111"/>
</g>
<defs>
<clipPath id="clip0">
<rect width="33.32" height="37.61" fill="white"/>
</clipPath>
<clipPath id="clip1">
<rect width="101" height="18" fill="white" transform="translate(90 13)"/>
</clipPath>
</defs>
</svg>

<svg width="191" height="38" viewBox="0 0 191 38" fill="none" xmlns="http://www.w3.org/2000/svg">
  <g clip-path="url(#clip0)">
    <path d="M6.07 20.72v-2.26c6.68-.92 13.42-1.36 20.17-1.33 0 .6 0 1.21-.06 1.82a25.52 25.52 0 016-1.82A16.67 16.67 0 00.19 20.39l5.88.33zm21.17 3.51c-1.16 1.28-1.39 1.2-1.39 3.45v9.18A16.64 16.64 0 0033.32 23a17.3 17.3 0 00-.32-3.1 33.1 33.1 0 00-5.76 4.33zM6.36 25.72s-3.79-1.44-5.19-1.83A8.54 8.54 0 000 23.61a16.65 16.65 0 008.68 14L6.36 25.72z" fill="#FDC305"/>
    <path d="M26.29 17.12A89.8 89.8 0 0024.89.65S24.75-.64 24 .41c-.59 1.25-1 2.58-1.2 3.94a70.34 70.34 0 00-12.77.34C9.24 2 7.85.75 7.18 1c-.67.25-.72 3.31-.72 3.31l-.33 14.1c6.68-.9 13.42-1.34 20.16-1.29z" fill="#F06351"/>
    <path d="M12.41 14c0-.09 1 .68 1.41.92.41.24.61.42.61.59 0 .17-.27.34-.63.34s-.91-.12-1-.27h1.23A8.34 8.34 0 0112.41 14zm7.48.11l-1.09 1.33c0 .06-.17.35.18.3.41-.06.82-.16 1.22-.29.11 0 .07-.19-.11-.17-.18.02-.69.05-1 .11l.84-1.26s.07-.13-.04-.02zm-3.14 6.09c.46-.2.85-.56 1.09-1 .28-.65 0-.91-.44-1-.6-.11-1.22.01-1.74.34-.39.36-.34.72-.05 1 .35.27.73.49 1.14.66z" fill="#000"/>
    <path d="M16.35 21.45c-.11.23-.27.43-.46.6-.28.23-.63.36-1 .38a2.15 2.15 0 01-1.47-.43 2.3 2.3 0 01-.53-.44c-.1-.11-.22-.2-.36-.26 0 0 .75 4.1 2.57 4.75 1.82.65 2.14-.75 2.2-1.13a5.61 5.61 0 00-.82-3.23c-.02-.31-.03-.11-.13-.24z" fill="#F06351"/>
    <path d="M14.71 22.59a3.44 3.44 0 01-2.36-1.47.14.14 0 01.03-.15.14.14 0 01.2 0c.5.7 1.26 1.16 2.11 1.3a2.1 2.1 0 001.63-1l.14-.19.1.21s.37.76 1 .8c.63.04 1.05-.41 1.61-1.28a.14.14 0 01.2 0 .15.15 0 01.05.2c-.64 1-1.27 1.44-1.88 1.4a1.55 1.55 0 01-1.12-.76 2.26 2.26 0 01-1.71.94z" fill="#000"/>
    <path d="M26.24 18.92a58.63 58.63 0 00-5.07 5.19A31.63 31.63 0 0115.88 29c-.22-.53-1.62-1.51-1.62-1.51s-3.13-2.14-5.18-3.82a34.14 34.14 0 01-3.13-3l-2-.11c2.89 4.2 7.12 7.3 12 8.8.86-.14 3.27-1.86 5.07-3.26a58.13 58.13 0 005.94-5.89c.5-.59.89-1.27 1.14-2-1.1.39-1.86.71-1.86.71z" fill="#F06351"/>
  </g>
  <g clip-path="url(#clip1)" fill="#111">
    <path d="M91.26 29.54a6.87 6.87 0 01-1.26-4.3v-6.4c-.1-1.54.3-3.08 1.19-4.38.86-1 2.2-1.46 4.18-1.46 1.98 0 3.24.46 4.03 1.3a5.42 5.42 0 011.19 3.78v1.54h-3.87v-1.77a3.7 3.7 0 00-.24-1.54 1.16 1.16 0 00-1.1-.62c-.56 0-.95.16-1.11.54a4.85 4.85 0 00-.24 1.7v8.22c-.04.56.07 1.12.32 1.62.15.38.55.54 1.1.54.56 0 .87-.16 1.03-.54.18-.52.26-1.07.24-1.62v-1.84h3.87v1.54a5.78 5.78 0 01-1.19 3.84c-.79.93-2.13 1.39-4.03 1.39-1.9-.08-3.32-.54-4.1-1.54zm13.99-16.31h4.5l3.33 17.54h-3.64l-.63-3.7h-2.6l-.64 3.7h-3.72l3.4-17.54zm3.24 11.54l-.94-6.85-.95 6.85h1.9zm7.35-8.62h-2.68v-2.92h9.4v2.85h-2.69v14.69h-4.03V16.15zm13.91-2.92h6.96v1.85h-4.5v5.77h3.63v1.77h-3.64v6.46h4.5v1.77h-7.03V13.23h.08zm9.01 0h1.74l5.14 11.62V13.23h2.05v17.54h-1.58l-5.22-12v12h-2.13V13.23zm11.3 0h6.96v1.85h-4.5v5.77h3.63v1.77h-3.64v6.46h4.5v1.77h-6.95V13.23zm9.01 0h3.64c1.43-.1 2.85.28 4.03 1.08.87.69 1.26 1.92 1.26 3.54 0 2.23-.7 3.61-2.21 4.07l2.53 8.77h-2.45l-2.37-8.23h-1.98v8.23H159V13.23h.08zm3.48 7.54c.81.06 1.63-.15 2.3-.62.47-.38.7-1.15.7-2.3a4.84 4.84 0 00-.24-1.7 1.96 1.96 0 00-.86-.92 3.69 3.69 0 00-1.74-.3h-1.1v5.76h.94v.08zm8.61 8.69a7.6 7.6 0 01-1.1-4.46v-5.85c-.02-1.11.11-2.22.4-3.3.26-.81.78-1.51 1.5-2 .88-.51 1.9-.75 2.92-.7 1.66 0 2.84.39 3.55 1.23a5.77 5.77 0 011.11 3.85v.62h-2.37v-.54c0-.65-.05-1.29-.16-1.93-.06-.4-.3-.76-.63-1a2.5 2.5 0 00-1.5-.38 2.42 2.42 0 00-1.58.46 1.73 1.73 0 00-.64 1.23c-.1.69-.15 1.38-.15 2.08v6.54c-.06 1 .1 2 .47 2.92.32.62.95.85 1.9.85a1.96 1.96 0 001.89-.93 6.9 6.9 0 00.56-3.07v-1.23h-2.3v-1.77h4.59v8.69h-1.58l-.24-2c-.2.67-.64 1.25-1.22 1.66-.6.4-1.3.6-2.02.57a4.05 4.05 0 01-3.4-1.54zm13.52-4.84L180.8 13.3h2.38l2.76 8.46 2.69-8.46H191l-3.87 11.3v6.16h-2.37v-6.15h-.08z"/>
  </g>
  <defs>
    <clipPath id="clip0">
      <path fill="#fff" d="M0 0h33.32v37.61H0z"/>
    </clipPath>
    <clipPath id="clip1">
      <path fill="#fff" transform="translate(90 13)" d="M0 0h101v18H0z"/>
    </clipPath>
  </defs>
</svg>
